X: 061
M: C|
L: 1/8
K: F
V: 1
(a/g/f/e/ f)c TA2 Fc | (A/B/c) Gc AF F :|
|: (c |\
V: 2 clef=bass middle=d
z |\
f2f2 f2f2 | f2f2 g2g2 |\
f2f2 f2f2 | c2c2 F2F :|\
|: z | f2f2
f2f2 | f2f2 g2g2 |\
f2f2 f2f2 | c2c2 F2F :|

